icons/Calendar-Edit.svg

<svg width="24" height="24" viewBox="0 0 24 24" fill="none" xmlns="http://www.w3.org/2000/svg">
<path d="M11 22H6.83997C5.7791 22 4.76168 21.5786 4.01154 20.8284C3.26139 20.0783 2.83997 19.0609 2.83997 18V8.75C2.83997 7.68913 3.26139 6.67172 4.01154 5.92157C4.76168 5.17143 5.7791 4.75 6.83997 4.75H16.84C17.9008 4.75 18.9182 5.17143 19.6684 5.92157C20.4185 6.67172 20.84 7.68913 20.84 8.75V11.75" stroke="#00153F" stroke-width="1.5" stroke-linecap="round" stroke-linejoin="round"/>
<path d="M7.83997 3.25V6.25" stroke="#00153F" stroke-width="1.5" stroke-linecap="round" stroke-linejoin="round"/>
<path d="M16.84 3.25V6.25" stroke="#00153F" stroke-width="1.5" stroke-linecap="round" stroke-linejoin="round"/>
<path d="M2.83997 9.75H20.84" stroke="#00153F" stroke-width="1.5" stroke-linecap="round" stroke-linejoin="round"/>
<path d="M14.1501 19.72L19.2301 14.64C19.3252 14.5477 19.4525 14.4962 19.5851 14.4962C19.7176 14.4962 19.8449 14.5477 19.9401 14.64L21.3601 16.06C21.4523 16.1551 21.5039 16.2825 21.5039 16.415C21.5039 16.5475 21.4523 16.6748 21.3601 16.77L16.2801 21.85C16.2335 21.8983 16.1775 21.9365 16.1156 21.9624C16.0537 21.9882 15.9871 22.001 15.9201 22H14.5001C14.3674 22 14.2403 21.9473 14.1465 21.8535C14.0527 21.7598 14.0001 21.6326 14.0001 21.5V20.08C13.9991 20.0129 14.0119 19.9464 14.0377 19.8844C14.0635 19.8225 14.1017 19.7665 14.1501 19.72Z" stroke="#00153F" stroke-width="1.5" stroke-linecap="round" stroke-linejoin="round"/>
<path d="M18 15.86L20.14 18" stroke="#00153F" stroke-width="1.5" stroke-linecap="round" stroke-linejoin="round"/>
<path d="M7.80005 14V14.001" stroke="#00153F" stroke-width="2" stroke-linecap="round" stroke-linejoin="round"/>
<path d="M11.8 14V14.001" stroke="#00153F" stroke-width="2" stroke-linecap="round" stroke-linejoin="round"/>
<path d="M7.80005 18V18.001" stroke="#00153F" stroke-width="2" stroke-linecap="round" stroke-linejoin="round"/>
</svg>

<svg xmlns="http://www.w3.org/2000/svg" fill="none" viewBox="0 0 24 24"><path stroke="currentColor" stroke-linecap="round" stroke-linejoin="round" stroke-width="1.5" d="M11 22H6.84a4 4 0 0 1-4-4V8.75a4 4 0 0 1 4-4h10a4 4 0 0 1 4 4v3m-13-8.5v3m9-3v3m-14 3.5h18m-6.69 9.97 5.08-5.08a.51.51 0 0 1 .71 0l1.42 1.42a.51.51 0 0 1 0 .71l-5.08 5.08a.493.493 0 0 1-.36.15H14.5a.5.5 0 0 1-.5-.5v-1.42a.49.49 0 0 1 .15-.36ZM18 15.86 20.14 18"/><path stroke="currentColor" stroke-linecap="round" stroke-linejoin="round" stroke-width="2" d="M7.8 14v.001m4-.001v.001M7.8 18v.001"/></svg>
